images/icons/twitter.svg

<svg height="48" viewBox="0 0 48 48" width="48" xmlns="http://www.w3.org/2000/svg"><g fill="none" fill-rule="evenodd"><path d="m-104-2775h320v4423h-320z" fill="#fff"/><circle cx="24" cy="24" fill="#03a9f4" r="24"/><path d="m40 14.8386588c-1.1251172.4916664-2.3173234.8151731-3.537842.9599982 1.2825577-.7569144 2.2448221-1.9505839 2.7079573-3.359166-1.2091141.707753-2.5309612 1.2053773-3.9086238 1.4714455-1.1664341-1.2255931-2.7914003-1.9172563-4.4893765-1.910893-3.3978614 0-6.1549785 2.7119949-6.1549785 6.0579196 0 .4717233.0549924.9351707.1591446 1.3804112-4.9379462-.23897-9.5444072-2.538953-12.6832385-6.3326777-1.6321558 2.7719696-.795805 6.3277876 1.9039023 8.0946054-.976642-.0319203-1.9321187-.2910009-2.7896126-.7564124v.0711723c0 2.9379255 2.1222053 5.3859209 4.9343147 5.9453681-.5270623.1429174-1.0709249.2155544-1.6172754.2159996-.3974448 0-.784891-.0446896-1.1581725-.1125515.7807249 2.4016506 3.0520761 4.1569576 5.7475351 4.2090955-2.5873564 1.9944173-5.8619677 2.8954042-9.1137342 2.5075814 2.8217452 1.777735 6.0946698 2.7209687 9.4361894 2.7194432 11.3200944 0 17.5142342-9.2325343 17.5142342-17.2435537 0-.2615167-.0099987-.523861-.0233301-.7787571 1.2080415-.8519464 2.2494036-1.9157163 3.0729065-3.1390286" fill="#fff" fill-rule="nonzero"/></g></svg>

<?xml version="1.0" encoding="UTF-8"?>
<svg width="48px" height="48px" viewBox="0 0 48 48" version="1.1" xmlns="http://www.w3.org/2000/svg" xmlns:xlink="http://www.w3.org/1999/xlink">
    <!-- Generator: Sketch 51 (57462) - http://www.bohemiancoding.com/sketch -->
    <title>Twitter</title>
    <desc>Created with Sketch.</desc>
    <defs></defs>
    <g id="Mobile" stroke="none" stroke-width="1" fill="none" fill-rule="evenodd">
        <g id="Article-320" transform="translate(-104.000000, -2775.000000)">
            <rect fill="#FFFFFF" x="0" y="0" width="320" height="4423"></rect>
            <g id="Author" transform="translate(96.000000, 2607.000000)">
                <g id="Icons" transform="translate(8.000000, 168.000000)">
                    <g id="Twitter">
                        <circle id="Oval-2" fill="#03A9F4" cx="24" cy="24" r="24"></circle>
                        <path d="M40,14.8386588 C38.8748828,15.3303252 37.6826766,15.6538319 36.462158,15.798657 C37.7447157,15.0417426 38.7069801,13.8480731 39.1701153,12.439491 C37.9610012,13.147244 36.6391541,13.6448683 35.2614915,13.9109365 C34.0950574,12.6853434 32.4700912,11.9936802 30.772115,12.0000435 C27.3742536,12.0000435 24.6171365,14.7120384 24.6171365,18.0579631 C24.6171365,18.5296864 24.6721289,18.9931338 24.7762811,19.4383743 C19.8383349,19.1994043 15.2318739,16.8994213 12.0930426,13.1056966 C10.4608868,15.8776662 11.2972376,19.4334842 13.9969449,21.200302 C13.0203029,21.1683817 12.0648262,20.9093011 11.2073323,20.4438896 L11.2073323,20.5150619 C11.2073323,23.4529874 13.3295376,25.9009828 16.141647,26.46043 C15.6145847,26.6033474 15.0707221,26.6759844 14.5243716,26.6764296 C14.1269268,26.6764296 13.7394806,26.63174 13.3661991,26.5638781 C14.146924,28.9655287 16.4182752,30.7208357 19.1137342,30.7729736 C16.5263778,32.7673909 13.2517665,33.6683778 10,33.280555 C12.8217452,35.05829 16.0946698,36.0015237 19.4361894,35.9999982 C30.7562838,35.9999982 36.9504236,26.7674639 36.9504236,18.7564445 C36.9504236,18.4949278 36.9404249,18.2325835 36.9270935,17.9776874 C38.135135,17.125741 39.1764971,16.0619711 40,14.8386588" fill="#FFFFFF" fill-rule="nonzero"></path>
                    </g>
                </g>
            </g>
        </g>
    </g>
</svg>
